icon-svg/asus-rp-68u.svg

<svg xmlns="http://www.w3.org/2000/svg" viewBox="0 0 24 24"><path fill="#44739e" d="M11.662 4.318c-.048.033-.04.041.041.042a1 1 0 0 1 .2.028c.091.024.1.02.046-.042a.23.23 0 0 0-.291-.028m.922 0c.076 0 .061-.124-.024-.192s-.123-.066-.123-.009c0 .083.09.2.147.2m-2.878.193a4.5 4.5 0 0 0-.726-.153L6.77 3.999c-1.537-.251-1.583-.257-1.662-.225S5.082 19.42 5.147 19.5c.025.031 0 .1.137.166a.9.9 0 0 0 .388.087s1.405.445 1.722.543l1.207.371.751.227c.239.078.342.05.454-.119l.1-.157-.043-5.4c-.054-7.271-.106-10.65-.161-10.708M5.26 19.645l.013.011Zm1.542-.445a10 10 0 0 0-.47-.146c-.316-.077-.379-.118-.4-.255a.3.3 0 0 1 .021-.181q.046-.052-.021-.051c-.045 0-.114.088-.177.194-.139.234-.187.145-.058-.109.1-.194.175-.2.535-.1.275.081.324.12.325.256 0 .168.044.2.406.333s.407.1.114-.049c-.209-.108-.137-.149.082-.046.1.049.156.1.156.156 0 .119-.16.119-.514 0Zm.549-.13a.35.35 0 0 0-.193-.114 3 3 0 0 1-.2-.048c-.038-.01-.071 0-.067.013q.02.134-.067.136-.061-.002-.033-.049a.35.35 0 0 0 .021-.163 1 1 0 0 0 .01-.114s.122.037.262.082c.242.083.343.165.343.281q.002.07-.062-.024ZM9.569 4.941c-.01.051-.018.02-.018-.07s.007-.133.017-.093a.4.4 0 0 1 .01.163Zm.125 6.674c-.009 1.526-.009 1.526-.03.5a18 18 0 0 1 .022-2.045c.009 0 .013.694.008 1.537Zm3.132-7.385c-.013.02-.01.041.008.041.076 0-.179.116-.265.119-.059 0-.084.018-.066.046.038.061.376.021.451-.055a.13.13 0 0 0 .032-.128.089.089 0 0 0-.161-.027ZM6.237 18.662c-.21-.074-.2-.073-.229-.021-.049.079.026.2.152.24.2.072.27.048.112-.036a.8.8 0 0 1-.2-.142c-.04-.047-.006-.042.147.025a.8.8 0 0 1 .228.132c.04.061.04-.022 0-.086a.55.55 0 0 0-.206-.112m9.455-14.469a1 1 0 0 0-.156.037c-.056.02-.7.194-1.424.391l-1.323.356-1.283-.206c-.712-.114-1.311-.2-1.322-.2s-.031 3.719-.031 8.265v8.291c.062.031 1.045.332 1.314.415 0 0-.055.012.071.1a2.6 2.6 0 0 0 1.031.358c.183-.009 1.017-.314 1.034-.488a6 6 0 0 1 .733-.377c.36-.169.8-.381.98-.47l.326-.163.026-4.45c.014-2.447.039-6.116.054-8.153a31 31 0 0 0-.031-3.71Zm-5.114 7.352a3.5 3.5 0 0 1 .019.687c-.019.549-.025.584-.082.49a3 3 0 0 1-.069-.995c-.007-.865 0-.891.072-.871s.09.014.052-.13c-.025-.094-.027-.1-.071-.012s-.056-.356-.033-1.207c.009-.291.057-.384.111-.212a4 4 0 0 1 .023.623c0 .295 0 .745.02 1 .02.359.01.472-.031.5s-.048.059-.02.126ZM10.568 9.1c-.122-.126-.13-.151-.13-.438s.013-.335.109-.274a.8.8 0 0 1 .063.356 1.8 1.8 0 0 0 .052.407q.032.075-.094-.051m-.009-.806c-.079-.084-.1-.149-.1-.346a.6.6 0 0 0-.053-.293c-.1-.1-.04-.111.094-.01.118.09.137.126.116.214a.54.54 0 0 0 .018.407c.081.137.042.15-.073.028m.035-.672a.4.4 0 0 1-.146-.2c-.007-.051 0-.374.012-.712.021-.508.035-.615.082-.6a.2.2 0 0 1 .082.126.5.5 0 0 1-.023.239.27.27 0 0 0-.011.208 2 2 0 0 1 .045.478 2 2 0 0 0 .051.487c.041.064.025.061-.092-.025m2.136 10.864c-.009-3.436.037-12.447.063-12.447.01 0 .011 3.238 0 7.194s-.023 7.461-.035 7.786-.021-.817-.028-2.536Zm.7 3a2 2 0 0 1-.639.3 5 5 0 0 1 .652-.363c.007 0 0 .029-.012.055ZM6.886 3.746l1.776.285c.559.091 1.069.164 1.132.164.127 0 .439-.242.975-.756l.306-.295-.916-.192c-.508-.1-1.065-.225-1.244-.269a1 1 0 0 0-.7-.015c-.183.049-2.7.624-3.031.691a.34.34 0 0 0-.15.057 2.3 2.3 0 0 0 .54.119Zm2.51-.238c.2 0 .261.011.2.034a.62.62 0 0 1-.407 0c-.056-.023.008-.034.2-.034m-.047.23c-.041-.01.08-.051.27-.092a1 1 0 0 0 .469-.191c.153-.139.281-.163.163-.031s-.464.361-.385.262c.056-.071.055-.075-.015-.048a1.4 1.4 0 0 1-.5.1m.191.152a.8.8 0 0 1 .241-.136c.01 0-.024.035-.077.081-.086.071-.164.1-.164.057Zm1.258-.61a7 7 0 0 1-1.05.793c-.079 0-.093.013.43-.391.686-.525.823-.615.62-.4Zm-4.957.061c.068-.018.463-.112.878-.2s.966-.225 1.221-.288a1.75 1.75 0 0 1 .95-.077c.084.024.487.115.895.2a6 6 0 0 1 .783.2q.04.042-.005.041c-.067 0-1.506-.322-1.747-.391-.2-.057-.23-.054-.916.1-1.322.305-1.974.448-2.079.443s-.091 0 .025-.034Zm3.766-.682c.766.155.885.187.731.194q-.075.002.045.04a.6.6 0 0 0 .224.018 1 1 0 0 1 .326.038l.225.059-.184-.016-.183-.017.208.054a11 11 0 0 0 1.447.073l1.238.02.611-.305.61-.305-.183-.036c-.1-.02-.295-.051-.429-.07-.858-.122-2.014-.3-2.327-.349a2.3 2.3 0 0 0-.759-.044c-.016.015-1.873.406-2.238.467-.11.019.014.052.638.179m.837.1a1 1 0 0 1-.225-.03c-.112-.03-.112-.03-.021-.03a1 1 0 0 1 .224.031c.109.023.112.026.021.026Zm3.435.188-.241.108h-1.15a10 10 0 0 1-1.147-.034c0-.02-.075-.057-.168-.085s-.159-.059-.148-.069a.22.22 0 0 1 .129.023q.22.084.158-.009c-.042-.062-.046-.234-.007-.234.017 0 .041.033.053.074a.6.6 0 0 0 .108.164c.068.073.122.088.3.082l.221-.011-.1-.181c-.122-.218-.122-.218-.01-.165a.8.8 0 0 1 .2.2c.072.114.133.161.214.161h.1l-.074-.072a.3.3 0 0 1-.081-.115.6.6 0 0 0-.132-.164c-.092-.091-.1-.122-.051-.1a1.2 1.2 0 0 1 .265.224.7.7 0 0 1 .176.228 3 3 0 0 0 .6.025c.567 0 .634-.009.8-.1a.5.5 0 0 1 .193-.078.7.7 0 0 1-.222.129Zm-2.306-.269a.09.09 0 0 0 .073.051c.03 0 .083.045.12.1.065.1.065.1-.037.1a.14.14 0 0 1-.144-.1c-.041-.114-.053-.256-.012-.156Zm1.068.1c.04.037.087.054.1.038s.017 0 0 .041c-.036.092-.088.089-.14-.008-.058-.116-.046-.146.038-.071m1.6-.157a2 2 0 0 1-.326.184 1 1 0 0 1-.521.159h-.2l.164-.035a3.3 3.3 0 0 0 .493-.183c.321-.142.385-.163.385-.125m-3.427-.422a2.3 2.3 0 0 1 .712-.1c.045.008.407.061.8.117a11 11 0 0 1 1.831.295 16 16 0 0 1-1.749-.224 2.87 2.87 0 0 0-1.673-.01 6.7 6.7 0 0 1-1.213.222 9.4 9.4 0 0 1 1.3-.3Zm3.3 1.917a.2.2 0 0 1-.117-.065c-.061-.075-.072-.074-.225.01a2 2 0 0 1-.358.138c-.361.1-.179.152.218.057.493-.115.562-.134.491-.138m3.372-.412-1.332.366a.3.3 0 0 0-.177.114c-.048.12-.061 1.61-.078 9.001-.016 6.222-.011 7.133.042 7.152a3.4 3.4 0 0 0 .7-.283 20 20 0 0 1 1.071-.435 1.13 1.13 0 0 0 .648-.295c.064-.054.011-.071.118-.126a1.4 1.4 0 0 0 .254-.159c.052-.051.064-.827.1-5.787.02-3.153.037-6.655.037-7.789V3.399l-.1-.008c-.061 0-.64.137-1.291.315Zm-1.429 6.033c-.014 2.848-.029 6.329-.033 7.744a14.5 14.5 0 0 1-.036 2c-.032-.672-.01-13.586.027-14.378a3.4 3.4 0 0 1 .046-.54c.015 0 .014 2.328 0 5.173Zm-.443-5.884q-.508-.147-1.01-.319a3.8 3.8 0 0 0-1.47-.322 7.8 7.8 0 0 0-1.845.02 10 10 0 0 0-1.134 1.007c0 .02.01.038.022.038s.587.093 1.276.201a10 10 0 0 0 1.416.182c.09-.013.457-.1.813-.2l1.187-.327c.289-.081.611-.157.7-.171.212-.029.226-.074.041-.109m-2.848-.581c.305 0 .427 0 .275.01a6 6 0 0 1-.551 0c-.152-.01-.026-.02.277-.02Zm.1.63c.081 0 .149.015.149.041s-.057.024-.133.01q-.276-.055-.015-.055Zm-.015-.117c.08 0 .111.011.072.021a.4.4 0 0 1-.143 0c-.037-.012-.006-.021.071-.021m.837.612a1.6 1.6 0 0 1-.326.065 1.7 1.7 0 0 1 .531-.144c.046 0-.046.034-.2.074Zm.768-.292c-.2.047-.451.112-.563.142s-.387.101-.61.164a3 3 0 0 0-.429.132c-.021.024.023.018.35-.046.1-.019.1-.015-.026.036a1.2 1.2 0 0 1-.357.062c-.174 0-1.729-.24-2.285-.357l-.134-.028.468-.386a3 3 0 0 0 .484-.456c.019-.071.118-.1.335-.112.117 0 .118 0 .025.038a4.5 4.5 0 0 0-.537.407 6 6 0 0 1-.547.423c-.1.053-.1.056.15.088.6.077 1.345.017 1.074-.088-.053-.02-.138-.006-.554.089-.062.014-.03-.017.082-.077a.7.7 0 0 1 .332-.094c.182.007.163-.037-.061-.143l-.169-.081.175.02c.216.023.274.068.4.317.15.301.356.377.237.091l-.059-.141.153-.063c.124-.053.14-.071.085-.1a.22.22 0 0 0-.178 0c-.1.037-.126.027-.217-.057a.6.6 0 0 0-.188-.119l-.081-.02h.081a.5.5 0 0 1 .193.054c.064.032.112.04.112.02 0-.071.268.013.422.132a.32.32 0 0 0 .306.1c.083-.01.223-.031.315-.043l.163-.022-.131.051c-.276.108-.156.158.156.065.134-.041.155-.061.132-.132a.5.5 0 0 0-.1-.158c-.082-.1-.021-.092.145.008a.6.6 0 0 0 .242.081.6.6 0 0 1 .255.1c.143.1.149.1.407.041a1 1 0 0 1 .28-.046 1.6 1.6 0 0 1-.342.1Zm.63-.251a14 14 0 0 1-1.627-.521c-.146-.095.1-.031.877.234a4 4 0 0 1 .751.284Zm-1.059-.69c.039 0 .509.147 1.037.328l.965.33 1.359-.369c.747-.2 1.414-.37 1.48-.37.223 0 .083-.041-.345-.1q-.427-.059-.855-.122c-.233-.036-.62-.09-.856-.122a79 79 0 0 1-.973-.143q-.3-.048-.592-.081a7 7 0 0 0-.67.325 2.6 2.6 0 0 0-.559.328Zm2.023.488a9 9 0 0 1-1.607-.527c.012 0 .4.117.859.263a4.6 4.6 0 0 1 .748.264m-.4-.4c.091 0 .132.009.093.019a.5.5 0 0 1-.163 0c-.051-.01-.02-.018.071-.018Zm2 .016a2.5 2.5 0 0 1-.421.081 3.7 3.7 0 0 1 .745-.181c.044 0-.1.045-.324.1m-2.288-.637c.029 0 .317.037.638.081l1.2.165c.336.047.676.1.755.118.142.033.142.034.021.038s-1.336-.153-2.01-.263a1.17 1.17 0 0 0-1.005.129 2 2 0 0 1-.438.172 3.7 3.7 0 0 1 .841-.441"/></svg>

<svg xmlns="http://www.w3.org/2000/svg" fill="#44739e" width="24" height="24" version="1.1" viewBox="0 0 24 24"><path d="m 11.66,4.319 c -0.048,0.032 -0.04,0.04 0.041,0.041 a 1,1 0 0 1 0.2,0.028 c 0.091,0.024 0.1,0.02 0.046,-0.041 A 0.23,0.23 0 0 0 11.656,4.319 m 0.922,0 c 0.076,0 0.061,-0.124 -0.024,-0.192 -0.085,-0.068 -0.123,-0.066 -0.123,-0.009 0,0.083 0.09,0.2 0.147,0.2 M 9.7,4.51 A 4.484,4.484 0 0 0 8.974,4.357 L 6.768,4 C 5.231,3.749 5.185,3.743 5.106,3.775 5.027,3.807 5.08,19.42 5.145,19.5 c 0.025,0.031 0,0.1 0.137,0.166 a 0.881,0.881 0 0 0 0.388,0.087 c 0,0 1.405,0.445 1.722,0.543 0.317,0.098 0.859,0.265 1.207,0.371 l 0.751,0.227 c 0.239,0.078 0.342,0.05 0.454,-0.119 l 0.1,-0.157 -0.043,-5.4 C 9.807,7.947 9.755,4.568 9.7,4.51 M 5.258,19.645 5.271,19.656 Z M 6.8,19.2 C 6.645,19.146 6.488,19.1 6.33,19.054 6.014,18.977 5.951,18.936 5.93,18.799 a 0.289,0.289 0 0 1 0.021,-0.181 c 0.03,-0.036 0.024,-0.051 -0.021,-0.051 -0.045,0 -0.114,0.088 -0.177,0.194 -0.139,0.234 -0.187,0.145 -0.058,-0.109 0.1,-0.194 0.175,-0.2 0.535,-0.1 0.275,0.081 0.324,0.12 0.325,0.256 0,0.168 0.044,0.2 0.406,0.333 0.362,0.133 0.407,0.1 0.114,-0.049 -0.209,-0.108 -0.137,-0.149 0.082,-0.046 0.1,0.049 0.156,0.1 0.156,0.156 0,0.119 -0.16,0.119 -0.514,0 z M 7.349,19.07 A 0.352,0.352 0 0 0 7.156,18.956 c -0.069,-0.014 -0.136,-0.03 -0.2,-0.048 -0.038,-0.01 -0.071,0 -0.067,0.013 0.015,0.088 -0.01,0.136 -0.067,0.136 -0.041,0 -0.052,-0.019 -0.033,-0.049 A 0.349,0.349 0 0 0 6.81,18.845 0.81,0.81 0 0 0 6.82,18.731 c 0,0 0.122,0.037 0.262,0.082 0.242,0.083 0.343,0.165 0.343,0.281 0,0.046 -0.018,0.039 -0.062,-0.024 z M 9.567,4.941 c -0.01,0.051 -0.018,0.02 -0.018,-0.07 0,-0.09 0.007,-0.133 0.017,-0.093 a 0.426,0.426 0 0 1 0.01,0.163 z m 0.125,6.674 c -0.009,1.526 -0.009,1.526 -0.03,0.5 A 17.887,17.887 0 0 1 9.684,10.07 c 0.009,0 0.013,0.694 0.008,1.537 z m 3.132,-7.384 c -0.013,0.02 -0.01,0.041 0.008,0.041 0.076,0 -0.179,0.115 -0.265,0.118 -0.059,0 -0.084,0.018 -0.066,0.046 0.038,0.061 0.376,0.021 0.451,-0.055 A 0.134,0.134 0 0 0 12.984,4.254 0.089,0.089 0 0 0 12.823,4.227 Z M 6.235,18.662 c -0.21,-0.074 -0.2,-0.073 -0.229,-0.021 -0.049,0.079 0.026,0.2 0.152,0.24 0.2,0.072 0.27,0.048 0.112,-0.036 A 0.821,0.821 0 0 1 6.07,18.703 C 6.03,18.656 6.064,18.661 6.217,18.728 a 0.827,0.827 0 0 1 0.228,0.132 c 0.04,0.061 0.04,-0.022 0,-0.086 A 0.545,0.545 0 0 0 6.239,18.662 M 15.694,4.194 a 0.77,0.77 0 0 0 -0.156,0.037 c -0.056,0.02 -0.7,0.193 -1.424,0.39 L 12.791,4.977 11.508,4.771 c -0.712,-0.114 -1.311,-0.2 -1.322,-0.2 -0.011,0 -0.031,3.719 -0.031,8.265 v 8.291 c 0.062,0.031 1.045,0.332 1.314,0.415 0,0 -0.055,0.012 0.071,0.1 A 2.6,2.6 0 0 0 12.571,22 c 0.183,-0.009 1.017,-0.314 1.034,-0.488 a 5.9,5.9 0 0 1 0.733,-0.377 c 0.36,-0.169 0.8,-0.381 0.98,-0.47 l 0.326,-0.163 0.026,-4.45 c 0.014,-2.447 0.039,-6.116 0.054,-8.153 A 31.223,31.223 0 0 0 15.693,4.19 Z m -5.114,7.351 a 3.506,3.506 0 0 1 0.019,0.687 c -0.019,0.549 -0.025,0.584 -0.082,0.49 a 3.029,3.029 0 0 1 -0.069,-0.995 c -0.007,-0.865 0,-0.891 0.072,-0.871 0.072,0.02 0.09,0.014 0.052,-0.13 -0.025,-0.094 -0.027,-0.1 -0.071,-0.012 -0.044,0.088 -0.056,-0.356 -0.033,-1.207 0.009,-0.291 0.057,-0.384 0.111,-0.212 a 4.322,4.322 0 0 1 0.023,0.623 c 0,0.295 0,0.745 0.02,1 0.02,0.359 0.01,0.472 -0.031,0.5 -0.041,0.028 -0.048,0.059 -0.02,0.126 z M 10.566,9.1 c -0.122,-0.126 -0.13,-0.151 -0.13,-0.438 0,-0.287 0.013,-0.335 0.109,-0.274 a 0.833,0.833 0 0 1 0.063,0.356 1.809,1.809 0 0 0 0.052,0.407 C 10.683,9.201 10.649,9.184 10.566,9.1 M 10.557,8.294 C 10.478,8.21 10.457,8.145 10.457,7.948 A 0.631,0.631 0 0 0 10.404,7.655 c -0.1,-0.1 -0.04,-0.111 0.094,-0.01 0.118,0.09 0.137,0.126 0.116,0.214 a 0.537,0.537 0 0 0 0.018,0.407 c 0.081,0.137 0.042,0.15 -0.073,0.028 m 0.035,-0.672 a 0.406,0.406 0 0 1 -0.146,-0.2 c -0.007,-0.051 0,-0.374 0.012,-0.712 0.021,-0.508 0.035,-0.615 0.082,-0.6 a 0.208,0.208 0 0 1 0.082,0.126 0.5,0.5 0 0 1 -0.023,0.239 0.273,0.273 0 0 0 -0.011,0.208 2.023,2.023 0 0 1 0.045,0.478 1.991,1.991 0 0 0 0.051,0.487 c 0.041,0.064 0.025,0.061 -0.092,-0.025 M 12.73,18.487 C 12.721,15.051 12.767,6.04 12.793,6.04 c 0.01,0 0.011,3.238 0,7.194 -0.011,3.956 -0.023,7.461 -0.035,7.786 -0.012,0.325 -0.021,-0.817 -0.028,-2.536 z m 0.7,3 a 1.942,1.942 0 0 1 -0.639,0.3 4.945,4.945 0 0 1 0.652,-0.363 c 0.007,0 0,0.029 -0.012,0.055 z M 6.884,3.747 8.66,4.032 c 0.559,0.091 1.069,0.164 1.132,0.164 0.127,0 0.439,-0.242 0.975,-0.756 L 11.073,3.145 10.157,2.953 C 9.649,2.853 9.092,2.728 8.913,2.684 A 0.987,0.987 0 0 0 8.213,2.669 C 8.03,2.718 5.513,3.293 5.182,3.36 a 0.34,0.34 0 0 0 -0.15,0.057 2.267,2.267 0 0 0 0.54,0.119 z m 2.51,-0.238 c 0.2,0 0.261,0.011 0.2,0.034 a 0.617,0.617 0 0 1 -0.407,0 C 9.131,3.52 9.195,3.509 9.387,3.509 M 9.34,3.739 C 9.299,3.729 9.42,3.688 9.61,3.647 A 0.994,0.994 0 0 0 10.079,3.456 C 10.232,3.317 10.36,3.293 10.242,3.425 10.124,3.557 9.778,3.786 9.857,3.687 9.913,3.616 9.912,3.612 9.842,3.639 a 1.439,1.439 0 0 1 -0.5,0.1 M 9.533,3.891 A 0.747,0.747 0 0 1 9.774,3.755 c 0.01,0 -0.024,0.035 -0.077,0.081 -0.086,0.071 -0.164,0.1 -0.164,0.057 z m 1.258,-0.61 a 6.87,6.87 0 0 1 -1.05,0.793 c -0.079,0 -0.093,0.013 0.43,-0.391 0.686,-0.525 0.823,-0.615 0.62,-0.4 z M 5.834,3.342 C 5.902,3.324 6.297,3.23 6.712,3.142 7.127,3.054 7.678,2.917 7.933,2.854 a 1.747,1.747 0 0 1 0.95,-0.077 c 0.084,0.024 0.487,0.115 0.895,0.2 a 5.735,5.735 0 0 1 0.783,0.2 C 10.588,3.205 10.586,3.218 10.556,3.218 10.489,3.218 9.05,2.896 8.809,2.827 8.609,2.77 8.579,2.773 7.893,2.927 6.571,3.232 5.919,3.375 5.814,3.37 5.709,3.365 5.723,3.37 5.839,3.336 Z M 9.6,2.66 c 0.766,0.155 0.885,0.187 0.731,0.194 -0.05,0 -0.035,0.016 0.045,0.04 A 0.564,0.564 0 0 0 10.6,2.912 0.972,0.972 0 0 1 10.926,2.95 L 11.151,3.009 10.967,2.993 10.784,2.976 10.992,3.03 a 10.757,10.757 0 0 0 1.447,0.073 l 1.238,0.02 0.611,-0.305 0.61,-0.305 -0.183,-0.036 C 14.615,2.457 14.42,2.426 14.286,2.407 13.428,2.285 12.272,2.107 11.959,2.058 A 2.279,2.279 0 0 0 11.2,2.014 C 11.184,2.029 9.327,2.42 8.962,2.481 8.852,2.5 8.976,2.533 9.6,2.66 m 0.837,0.1 A 1.138,1.138 0 0 1 10.212,2.73 C 10.1,2.7 10.1,2.7 10.191,2.7 a 1.129,1.129 0 0 1 0.224,0.031 c 0.109,0.023 0.112,0.026 0.021,0.026 z m 3.435,0.188 -0.241,0.108 h -1.15 A 9.542,9.542 0 0 1 11.334,3.022 c 0,-0.02 -0.075,-0.057 -0.168,-0.085 C 11.073,2.909 11.007,2.878 11.018,2.868 a 0.224,0.224 0 0 1 0.129,0.023 c 0.147,0.056 0.2,0.053 0.158,-0.009 -0.042,-0.062 -0.046,-0.234 -0.007,-0.234 0.017,0 0.041,0.033 0.053,0.074 a 0.563,0.563 0 0 0 0.108,0.164 c 0.068,0.073 0.122,0.088 0.3,0.082 L 11.98,2.957 11.88,2.776 C 11.758,2.558 11.758,2.558 11.87,2.611 a 0.754,0.754 0 0 1 0.2,0.2 c 0.072,0.114 0.133,0.161 0.214,0.161 h 0.1 L 12.31,2.9 A 0.3,0.3 0 0 1 12.229,2.785 0.565,0.565 0 0 0 12.097,2.621 c -0.092,-0.091 -0.1,-0.122 -0.051,-0.1 a 1.212,1.212 0 0 1 0.265,0.224 0.727,0.727 0 0 1 0.176,0.228 3.209,3.209 0 0 0 0.6,0.025 c 0.567,0 0.634,-0.009 0.8,-0.1 A 0.517,0.517 0 0 1 14.08,2.82 0.66,0.66 0 0 1 13.858,2.949 Z M 11.566,2.679 a 0.088,0.088 0 0 0 0.073,0.051 c 0.03,0 0.083,0.045 0.12,0.1 0.065,0.1 0.065,0.1 -0.037,0.1 A 0.137,0.137 0 0 1 11.578,2.83 C 11.537,2.716 11.525,2.574 11.566,2.674 Z m 1.068,0.1 c 0.04,0.037 0.087,0.054 0.1,0.038 0.013,-0.016 0.017,0 0,0.041 C 12.698,2.95 12.646,2.947 12.594,2.85 12.536,2.734 12.548,2.704 12.632,2.779 m 1.6,-0.157 a 2.132,2.132 0 0 1 -0.326,0.184 1.024,1.024 0 0 1 -0.521,0.159 h -0.2 L 13.349,2.93 A 3.314,3.314 0 0 0 13.842,2.747 C 14.163,2.605 14.227,2.584 14.227,2.622 M 10.8,2.2 a 2.31,2.31 0 0 1 0.712,-0.1 c 0.045,0.008 0.407,0.061 0.8,0.117 A 11,11 0 0 1 14.143,2.512 16.288,16.288 0 0 1 12.394,2.288 2.873,2.873 0 0 0 10.721,2.278 6.744,6.744 0 0 1 9.508,2.5 a 9.439,9.439 0 0 1 1.3,-0.3 z m 3.3,1.917 A 0.191,0.191 0 0 1 13.983,4.052 C 13.922,3.977 13.911,3.978 13.758,4.062 A 2.186,2.186 0 0 1 13.4,4.2 c -0.361,0.1 -0.179,0.151 0.218,0.057 0.493,-0.115 0.562,-0.134 0.491,-0.138 m 3.372,-0.412 -1.332,0.366 a 0.305,0.305 0 0 0 -0.177,0.114 c -0.048,0.12 -0.061,1.609 -0.078,9 -0.016,6.222 -0.011,7.133 0.042,7.152 a 3.385,3.385 0 0 0 0.7,-0.283 c 0.366,-0.171 1.071,-0.435 1.071,-0.435 a 1.133,1.133 0 0 0 0.648,-0.295 c 0.064,-0.054 0.011,-0.071 0.118,-0.126 a 1.423,1.423 0 0 0 0.254,-0.159 c 0.052,-0.051 0.064,-0.827 0.1,-5.787 0.02,-3.153 0.037,-6.655 0.037,-7.789 V 3.4 l -0.1,-0.008 c -0.061,0 -0.64,0.137 -1.291,0.315 z m -1.429,6.032 c -0.014,2.848 -0.029,6.329 -0.033,7.744 a 14.511,14.511 0 0 1 -0.036,2 C 15.951,18.811 15.973,5.897 16.01,5.105 a 3.374,3.374 0 0 1 0.046,-0.54 c 0.015,0 0.014,2.328 0,5.173 z M 15.609,3.856 Q 15.101,3.709 14.599,3.537 a 3.836,3.836 0 0 0 -1.47,-0.322 7.747,7.747 0 0 0 -1.845,0.02 10.038,10.038 0 0 0 -1.134,1.007 c 0,0.02 0.01,0.038 0.022,0.038 0.012,0 0.587,0.092 1.276,0.2 a 9.777,9.777 0 0 0 1.416,0.182 c 0.09,-0.013 0.457,-0.1 0.813,-0.2 l 1.187,-0.326 c 0.289,-0.081 0.611,-0.157 0.7,-0.171 0.212,-0.029 0.226,-0.074 0.041,-0.109 M 12.757,3.275 c 0.305,0 0.427,0 0.275,0.01 -0.184,0.008 -0.367,0.008 -0.551,0 -0.152,-0.01 -0.026,-0.02 0.277,-0.02 z m 0.1,0.63 c 0.081,0 0.149,0.015 0.149,0.041 0,0.026 -0.057,0.024 -0.133,0.01 C 12.69,3.92 12.683,3.901 12.858,3.901 Z M 12.842,3.788 c 0.08,0 0.111,0.011 0.072,0.021 a 0.345,0.345 0 0 1 -0.143,0 C 12.734,3.797 12.765,3.788 12.842,3.788 m 0.837,0.611 a 1.57,1.57 0 0 1 -0.326,0.065 1.714,1.714 0 0 1 0.531,-0.143 c 0.046,0 -0.046,0.033 -0.2,0.073 z m 0.768,-0.291 c -0.2,0.047 -0.451,0.112 -0.563,0.142 -0.112,0.03 -0.387,0.1 -0.61,0.163 a 2.951,2.951 0 0 0 -0.429,0.132 c -0.021,0.024 0.023,0.018 0.35,-0.046 0.1,-0.019 0.1,-0.015 -0.026,0.036 a 1.175,1.175 0 0 1 -0.357,0.062 c -0.174,0 -1.729,-0.24 -2.285,-0.356 L 10.393,4.213 10.861,3.827 a 3.073,3.073 0 0 0 0.484,-0.456 c 0.019,-0.071 0.118,-0.1 0.335,-0.112 0.117,0 0.118,0 0.025,0.038 a 4.511,4.511 0 0 0 -0.537,0.407 6.228,6.228 0 0 1 -0.547,0.423 c -0.1,0.053 -0.1,0.056 0.15,0.088 0.6,0.077 1.345,0.017 1.074,-0.088 -0.053,-0.02 -0.138,-0.006 -0.554,0.089 -0.062,0.014 -0.03,-0.017 0.082,-0.077 a 0.7,0.7 0 0 1 0.332,-0.094 c 0.182,0.007 0.163,-0.037 -0.061,-0.143 l -0.169,-0.081 0.175,0.02 c 0.216,0.023 0.274,0.068 0.4,0.317 0.15,0.3 0.356,0.376 0.237,0.091 L 12.228,4.108 12.381,4.045 c 0.124,-0.053 0.14,-0.071 0.085,-0.1 a 0.221,0.221 0 0 0 -0.178,0 c -0.1,0.037 -0.126,0.027 -0.217,-0.057 A 0.546,0.546 0 0 0 11.883,3.769 l -0.081,-0.02 h 0.081 a 0.461,0.461 0 0 1 0.193,0.054 c 0.064,0.032 0.112,0.04 0.112,0.02 0,-0.071 0.268,0.013 0.422,0.132 a 0.324,0.324 0 0 0 0.306,0.1 c 0.083,-0.01 0.223,-0.031 0.315,-0.043 L 13.394,3.99 13.263,4.041 c -0.276,0.108 -0.156,0.158 0.156,0.065 0.134,-0.041 0.155,-0.061 0.132,-0.132 a 0.5,0.5 0 0 0 -0.1,-0.158 c -0.082,-0.1 -0.021,-0.092 0.145,0.008 a 0.561,0.561 0 0 0 0.242,0.081 0.575,0.575 0 0 1 0.255,0.1 c 0.143,0.1 0.149,0.1 0.407,0.041 A 1.04,1.04 0 0 1 14.78,4 1.552,1.552 0 0 1 14.438,4.1 Z m 0.63,-0.251 A 13.809,13.809 0 0 1 13.45,3.336 c -0.146,-0.095 0.1,-0.031 0.877,0.234 a 3.933,3.933 0 0 1 0.751,0.284 z m -1.059,-0.69 c 0.039,0 0.509,0.147 1.037,0.328 l 0.965,0.33 1.359,-0.369 c 0.747,-0.2 1.414,-0.37 1.48,-0.37 0.223,0 0.083,-0.041 -0.345,-0.1 Q 18.087,2.927 17.659,2.864 C 17.426,2.828 17.039,2.774 16.803,2.742 16.478,2.696 16.154,2.649 15.83,2.599 Q 15.53,2.551 15.238,2.518 a 7.212,7.212 0 0 0 -0.67,0.325 2.635,2.635 0 0 0 -0.559,0.328 z m 2.023,0.488 A 8.913,8.913 0 0 1 14.434,3.128 c 0.012,0 0.4,0.117 0.859,0.263 a 4.614,4.614 0 0 1 0.748,0.264 m -0.4,-0.4 c 0.091,0 0.132,0.009 0.093,0.019 a 0.5,0.5 0 0 1 -0.163,0 C 15.52,3.264 15.551,3.256 15.642,3.256 Z m 2,0.016 A 2.5,2.5 0 0 1 17.22,3.352 3.665,3.665 0 0 1 17.965,3.171 c 0.044,0 -0.1,0.045 -0.324,0.1 M 15.353,2.634 c 0.029,0 0.317,0.037 0.638,0.081 l 1.2,0.165 c 0.336,0.047 0.676,0.1 0.755,0.118 0.142,0.033 0.142,0.034 0.021,0.038 -0.121,0.004 -1.336,-0.153 -2.01,-0.263 a 1.174,1.174 0 0 0 -1.005,0.129 1.9,1.9 0 0 1 -0.438,0.172 3.668,3.668 0 0 1 0.841,-0.441"/></svg>
